symbols/web/tab/materialsymbolssharp/tab_wght200_48px.svg

<svg xmlns="http://www.w3.org/2000/svg" height="48" width="48"><path d="M6 38V10h36v28Zm34.45-1.55v-16.6H26.1v-8.3H7.55v24.9Zm-32.9 0v-24.9 24.9Z"/></svg>

<svg xmlns="http://www.w3.org/2000/svg" height="48" width="48"><path d="M6 38V10H42V38ZM40.45 36.45V19.85H26.1V11.55H7.55V36.45ZM7.55 36.45V11.55V36.45Z"/></svg>
